src/icons/0120_table_a.svg

<svg data-name="Layer 1" xmlns="http://www.w3.org/2000/svg" viewBox="0 0 48 48"><path d="M0 0v48h48V0zm31 9v10H18V9zm0 13v10H18V22zm3 0h11v10H34zm0-3V9h11v10zM3 9h12v10H3zm0 13h12v10H3zm0 23V35h12v10zm15 0V35h13v10zm16 0V35h11v10z"/></svg>

<svg id="Layer_1" data-name="Layer 1" xmlns="http://www.w3.org/2000/svg" viewBox="0 0 48 48"><title>0120_table_a</title><path d="M0,0V48H48V0ZM31,9V19H18V9Zm0,13V32H18V22Zm3,0H45V32H34Zm0-3V9H45V19ZM3,9H15V19H3ZM3,22H15V32H3ZM3,45V35H15V45Zm15,0V35H31V45Zm16,0V35H45V45Z"/></svg>
